X:3143
T:Cock o' the North
T:Chase me Charlie
C:Trad.
S:Begged, Borrowed or Stolen
M:12/8
K:D
|: E |  F2 F FED F2 A B2 A | F2 F FED E3 EDE |F2F FED F2 A B2 A | FGF EFE D3 D2:|
|: d2 A B2 A d2 A B2 A| FGF FED E3 EDE | d2 A B2 A d2 A B2 A | FGF EFE D3 D3 :|


